public/flags/KN.svg

<svg fill="none" height="53" viewBox="0 0 61 53" width="61" xmlns="http://www.w3.org/2000/svg" xmlns:xlink="http://www.w3.org/1999/xlink"><mask id="a" height="43" maskUnits="userSpaceOnUse" width="59" x="1" y="3"><rect fill="#fff" height="42.5" rx="4.24286" width="59" x="1" y="3"/></mask><rect fill="#fff" height="42.5" rx="4.24286" width="59" x="1" y="3"/><g clip-rule="evenodd" fill-rule="evenodd" mask="url(#a)"><path d="m1 31.3333 59-28.3333h-59z" fill="#1ec160"/><path d="m1 45.5h59v-28.3333z" fill="#df2a40"/><path d="m2.65183 56.8334 69.09577-43.5417-13.3994-21.6252-69.0958 43.5417z" fill="#ffd956"/><path d="m-.325916 52.0278 69.095716-43.54168-7.4441-12.01401-69.09572 43.54169z" fill="#262626"/><g fill="#fff"><path d="m43.7948 19.5696-1.9921 3.1819-1.2926-3.5301-3.6163-.9274 2.9296-2.3306-.2429-3.755 3.1032 2.0896 3.4662-1.3933-1.0117 3.6221 2.3851 2.8939z"/><path d="m21.3185 33.3112-1.9921 3.1819-1.2926-3.53-3.6163-.9274 2.9296-2.3306-.2429-3.7551 3.1032 2.0897 3.4662-1.3934-1.0117 3.6221 2.3851 2.8939z"/></g></g></svg>

<svg width="61" height="53" viewBox="0 0 61 53" fill="none" xmlns="http://www.w3.org/2000/svg">
<rect x="1" y="3" width="59" height="42.5" rx="4.24286" fill="white"/>
<mask id="mask0" mask-type="alpha" maskUnits="userSpaceOnUse" x="1" y="3" width="59" height="43">
<rect x="1" y="3" width="59" height="42.5" rx="4.24286" fill="white"/>
</mask>
<g mask="url(#mask0)">
<path fill-rule="evenodd" clip-rule="evenodd" d="M1 31.3333L60 3H1V31.3333Z" fill="#1EC160"/>
<path fill-rule="evenodd" clip-rule="evenodd" d="M1 45.5H60V17.1667L1 45.5Z" fill="#DF2A40"/>
<path fill-rule="evenodd" clip-rule="evenodd" d="M2.65183 56.8334L71.7476 13.2917L58.3482 -8.3335L-10.7476 35.2082L2.65183 56.8334V56.8334Z" fill="#FFD956"/>
<path fill-rule="evenodd" clip-rule="evenodd" d="M-0.325916 52.0278L68.7698 8.48612L61.3257 -3.52789L-7.77002 40.0138L-0.325916 52.0278V52.0278Z" fill="#262626"/>
<path fill-rule="evenodd" clip-rule="evenodd" d="M43.7948 19.5696L41.8027 22.7515L40.5101 19.2214L36.8938 18.294L39.8234 15.9634L39.5805 12.2084L42.6837 14.298L46.1499 12.9047L45.1382 16.5268L47.5233 19.4207L43.7948 19.5696V19.5696Z" fill="white"/>
<path fill-rule="evenodd" clip-rule="evenodd" d="M21.3185 33.3112L19.3264 36.4931L18.0338 32.9631L14.4175 32.0357L17.3471 29.7051L17.1042 25.95L20.2074 28.0397L23.6736 26.6463L22.6619 30.2684L25.047 33.1623L21.3185 33.3112V33.3112Z" fill="white"/>
</g>
</svg>
